frontend/public/images/quotes/back.svg

<svg xmlns="http://www.w3.org/2000/svg" width="667" height="800" fill="none"><path fill="gray" fill-opacity=".08" d="M339.694 196.592c-.614 1.01-1.55 2.559-2.451 4.041-2.493-.438-4.667-.817-6.84-1.196l-.455 1.053c4.549 2.609 9.098 5.211 13.647 7.821.353-.337.716-.674 1.069-1.019l-2.114-5.354c.379-.177.758-.354 1.129-.531.615 1.221 1.39 2.383 1.819 3.671 1.205 3.544 3.37 5.11 7.211 4.175 2.889-.707 5.046-.774 7.076 2.736 1.727 2.989 5.93 4.446 8.702 6.946 3.883 3.51 7.421 7.24 9.19 12.544.868 2.584 3.715 4.462 5.467 6.81 1.171 1.575 4.178 2.694 1.803 5.599-.194.236 1.171 1.709 1.794 2.626 2.552 3.764 6.107 7.283 3.993 12.46-1.82 4.454.303 8.099 1.937 11.938.868 2.037 1.432 4.201 2.174 6.297 1.095 3.106 2.215 6.204 3.234 9.042l-2.788-.809c3.959 4.269 8.373 4.706 12.72 5.994-1.676 2.139-3.235 4.513-5.189 6.5-1.879 1.902-1.348 2.913.514 4.31 1.086.817 2.358 2.214 2.443 3.426.48 7.266 4.338 13.201 7.362 19.439 1.887 3.89 4.776 7.316 6.419 11.281.716 1.718-.64 4.26-.944 6.44-.353 2.526-.657 5.069-.842 7.611-.177 2.425-.522 4.916-.143 7.274.497 3.098 1.617 6.095 2.232 8.275-2.148-1.515-4.793-3.376-8.129-5.724-.438 5.699-4.725 10.456.674 15.549 1.575 1.49 1.643 4.58 2.595 7.518-1.441-.396-2.148-.581-3.462-.943 2.956 8.873-1.491 16.383-3.825 24.212-1.044 3.485-2.78 6.92-4.869 9.909-2.906 4.15-6.966 6.154-12.416 6.558-5.678.421-11.246 2.5-16.831 3.982-.665.177-1.415 1.052-1.617 1.759-3.075 10.574-6.158 21.157-8.98 31.798-.421 1.582.177 3.62.8 5.27 4.06 10.734 9.881 20.743 18.061 28.514 5.458 5.186 13.191 8.242 20.292 11.399 16.216 7.206 32.752 13.68 49.001 20.819 18.962 8.343 37.789 17.006 56.608 25.677a4497.647 4497.647 0 0 1 51.646 24.221c5.517 2.626 11.406 5 16.081 8.78 6.89 5.565 13.444 11.786 19.08 18.614 18.068 21.897 28.227 48.163 39.498 73.756 4.094 9.294 8.441 18.664 10.909 28.447 3.951 15.684 6.301 31.772 9.57 47.641 2.729 13.259 5.829 26.443 8.693 39.669.438 2.02.488 4.125.758 6.583H4c2.35-7.686 4.583-15.01 6.832-22.326.859-2.812 1.524-5.7 2.662-8.394 5.542-13.124 3.184-26.594 2.257-40.089-.64-9.337-.615-18.766-.168-28.119.202-4.218 2.063-8.385 3.344-12.518 4.886-15.769 8.668-32.008 15.154-47.094 4.65-10.827 11.945-20.963 19.804-29.887 20.891-23.724 45-43.474 74.845-55.403 12.088-4.832 23.873-10.422 35.801-15.65 11.659-5.102 23.3-10.229 35.001-15.221 3.201-1.364 4.877-3.418 6.048-6.836 2.359-6.861 5.568-13.428 8.407-20.121.977-2.307 2.097-4.588 2.78-6.987.295-1.019.017-2.989-.657-3.376-5.459-3.124-6.133-9.395-9.401-13.95-10.917-15.196-17.597-32.361-21.961-50.478-.126-.539-.48-1.095-.421-1.608.708-6.255-2.552-10.709-6.874-14.48-4.987-4.344-7.253-9.791-7.615-16.232-.042-.673-.337-1.33-.505-1.961-6.284-.295-13.739-7.661-14.548-13.984-.329-2.601-.783-5.345-1.963-7.627-.817-1.591-2.94-3.46-4.523-3.51-3.976-.127-6.293-2.097-7.952-5.212-1.752-3.291-3.749-4.824-7.759-3.207-1.465.589-4.523-.219-5.408-1.44-.884-1.22-.716-4.361.295-5.59 3.909-4.756 8.028-9.378 15.39-8.486 1.525.185 3.715-1.835 4.979-3.35 2.518-3.04 4.726-6.356 6.815-9.707 1.954-3.132 3.824-6.365 5.323-9.732 2.991-6.718 5.804-13.529 8.483-20.382 1.053-2.685 1.365-5.657 2.359-8.376.901-2.45 2.426-4.664 3.42-7.089.926-2.273 1.963-4.647 2.165-7.038.362-4.394 2.03-7.998 4.768-11.357 2.872-3.519 5.593-7.181 8.069-10.978.725-1.111 1.003-3.199.447-4.327-3.774-7.652 1.221-12.695 5.155-17.974 1.744-2.34 3.808-4.083 7.059-5.059 2.191-.657 3.564-4.555 4.945-7.181.741-1.415.969-3.225.986-4.858.05-4.293 2.796-5.565 6.343-5.834 6.343-.48 11.035-3.889 14.733-8.596 3.159-4.015 7.303-5.968 11.962-7.197.994-.261 2.468-.287 3.192.269 4.153 3.165 9.014 2.458 13.68 2.854.969.084 1.946.143 2.915.261 6.309.774 12.627 1.515 18.928 2.365 3.681.497 7.346 1.701 11.001 1.634 3.943-.084 7.868-1.28 11.794-1.996 2.83-.513 5.652-1.372 8.499-1.481 7.632-.295 15.273-.371 22.913-.295 1.735.017 3.454 1.027 5.854 1.793l.042.009Z"/></svg>

<svg width="667" height="800" viewBox="0 0 667 800" fill="none" xmlns="http://www.w3.org/2000/svg">
<path d="M339.694 196.592C339.08 197.602 338.144 199.151 337.243 200.633C334.75 200.195 332.576 199.816 330.403 199.437C330.251 199.791 330.1 200.136 329.948 200.49C334.497 203.099 339.046 205.701 343.595 208.311C343.948 207.974 344.311 207.637 344.664 207.292L342.55 201.938C342.929 201.761 343.308 201.584 343.679 201.407C344.294 202.628 345.069 203.79 345.498 205.078C346.703 208.622 348.868 210.188 352.709 209.253C355.598 208.546 357.755 208.479 359.785 211.989C361.512 214.978 365.715 216.435 368.487 218.935C372.37 222.445 375.908 226.175 377.677 231.479C378.545 234.063 381.392 235.941 383.144 238.289C384.315 239.864 387.322 240.983 384.947 243.888C384.753 244.124 386.118 245.597 386.741 246.514C389.293 250.278 392.848 253.797 390.734 258.974C388.914 263.428 391.037 267.073 392.671 270.912C393.539 272.949 394.103 275.113 394.845 277.209C395.94 280.315 397.06 283.413 398.079 286.251C398.248 286.301 397.38 286.049 395.291 285.442C399.25 289.711 403.664 290.148 408.011 291.436C406.335 293.575 404.776 295.949 402.822 297.936C400.943 299.838 401.474 300.849 403.336 302.246C404.422 303.063 405.694 304.46 405.779 305.672C406.259 312.938 410.117 318.873 413.141 325.111C415.028 329.001 417.917 332.427 419.56 336.392C420.276 338.11 418.92 340.652 418.616 342.832C418.263 345.358 417.959 347.901 417.774 350.443C417.597 352.868 417.252 355.359 417.631 357.717C418.128 360.815 419.248 363.812 419.863 365.992C417.715 364.477 415.07 362.616 411.734 360.268C411.296 365.967 407.009 370.724 412.408 375.817C413.983 377.307 414.051 380.397 415.003 383.335C413.562 382.939 412.855 382.754 411.541 382.392C414.497 391.265 410.05 398.775 407.716 406.604C406.672 410.089 404.936 413.524 402.847 416.513C399.941 420.663 395.881 422.667 390.431 423.071C384.753 423.492 379.185 425.571 373.6 427.053C372.935 427.23 372.185 428.105 371.983 428.812C368.908 439.386 365.825 449.969 363.003 460.61C362.582 462.192 363.18 464.23 363.803 465.88C367.863 476.614 373.684 486.623 381.864 494.394C387.322 499.58 395.055 502.636 402.156 505.793C418.372 512.999 434.908 519.473 451.157 526.612C470.119 534.955 488.946 543.618 507.765 552.289C525.034 560.245 542.243 568.335 559.411 576.51C564.928 579.136 570.817 581.51 575.492 585.29C582.382 590.855 588.936 597.076 594.572 603.904C612.64 625.801 622.799 652.067 634.07 677.66C638.164 686.954 642.511 696.324 644.979 706.107C648.93 721.791 651.28 737.879 654.549 753.748C657.278 767.007 660.378 780.191 663.242 793.417C663.68 795.437 663.73 797.542 664 800H4C6.35022 792.314 8.58251 784.99 10.8317 777.674C11.6909 774.862 12.3564 771.974 13.4936 769.28C19.0364 756.156 16.6777 742.686 15.7511 729.191C15.1109 719.854 15.1362 710.425 15.5826 701.072C15.7848 696.854 17.6465 692.687 18.9269 688.554C23.8126 672.785 27.5949 656.546 34.0812 641.46C38.7311 630.633 46.026 620.497 53.8854 611.573C74.7763 587.849 98.885 568.099 128.73 556.17C140.818 551.338 152.603 545.748 164.531 540.52C176.19 535.418 187.831 530.291 199.532 525.299C202.733 523.935 204.409 521.881 205.58 518.463C207.939 511.602 211.148 505.035 213.987 498.342C214.964 496.035 216.084 493.754 216.767 491.355C217.062 490.336 216.784 488.366 216.11 487.979C210.651 484.855 209.977 478.584 206.709 474.029C195.792 458.833 189.112 441.668 184.748 423.551C184.622 423.012 184.268 422.456 184.327 421.943C185.035 415.688 181.775 411.234 177.453 407.463C172.466 403.119 170.2 397.672 169.838 391.231C169.796 390.558 169.501 389.901 169.333 389.27C163.049 388.975 155.594 381.609 154.785 375.286C154.456 372.685 154.002 369.941 152.822 367.659C152.005 366.068 149.882 364.199 148.299 364.149C144.323 364.022 142.006 362.052 140.347 358.937C138.595 355.646 136.598 354.113 132.588 355.73C131.123 356.319 128.065 355.511 127.18 354.29C126.296 353.07 126.464 349.929 127.475 348.7C131.384 343.944 135.503 339.322 142.865 340.214C144.39 340.399 146.58 338.379 147.844 336.864C150.362 333.824 152.57 330.508 154.659 327.157C156.613 324.025 158.483 320.792 159.982 317.425C162.973 310.707 165.786 303.896 168.465 297.043C169.518 294.358 169.83 291.386 170.824 288.667C171.725 286.217 173.25 284.003 174.244 281.578C175.17 279.305 176.207 276.931 176.409 274.54C176.771 270.146 178.439 266.542 181.177 263.183C184.049 259.664 186.77 256.002 189.246 252.205C189.971 251.094 190.249 249.006 189.693 247.878C185.919 240.226 190.914 235.183 194.848 229.904C196.592 227.564 198.656 225.821 201.907 224.845C204.098 224.188 205.471 220.29 206.852 217.664C207.593 216.249 207.821 214.439 207.838 212.806C207.888 208.513 210.634 207.241 214.181 206.972C220.524 206.492 225.216 203.083 228.914 198.376C232.073 194.361 236.217 192.408 240.876 191.179C241.87 190.918 243.344 190.892 244.068 191.448C248.221 194.613 253.082 193.906 257.748 194.302C258.717 194.386 259.694 194.445 260.663 194.563C266.972 195.337 273.29 196.078 279.591 196.928C283.272 197.425 286.937 198.629 290.592 198.562C294.535 198.478 298.46 197.282 302.386 196.566C305.216 196.053 308.038 195.194 310.885 195.085C318.517 194.79 326.158 194.714 333.798 194.79C335.533 194.807 337.252 195.817 339.652 196.583L339.694 196.592Z" fill="#808080" fill-opacity="0.08"/>
</svg>
